Newaita/actions/16/kdenlive-zoom-small.svg

<svg height="16" viewBox="0 0 16 16" width="16" xmlns="http://www.w3.org/2000/svg"><g fill="#424242"><path d="m9.929688 3.117188c0 .078124-.03125.152343-.078126.210937l-1.65625 1.984375c-.136718.164062-.386718.164062-.523437 0l-1.65625-1.984375c-.183594-.226563-.027344-.5625.265625-.5625h3.304688c.195312 0 .351562.160156.34375.351563zm0 0"/><path d="m9.929688 13.011719c0-.078125-.03125-.152344-.078126-.210938l-1.65625-1.984375c-.136718-.164062-.386718-.164062-.523437 0l-1.65625 1.984375c-.183594.222657-.027344.5625.265625.5625h3.304688c.195312 0 .351562-.160156.34375-.351562zm0 0"/><path d="m2.644531 1.449219c-.730469 0-1.320312.589843-1.320312 1.320312v2.648438h1.320312v-1.984375c0-.367188.296875-.664063.664063-.664063h1.984375v-1.320312zm7.941407 0v1.320312h1.984374c.363282 0 .660157.296875.660157.664063v1.984375h1.324219v-2.648438c0-.730469-.589844-1.320312-1.324219-1.320312zm-9.261719 9.261719v2.644531c0 .734375.589843 1.324219 1.320312 1.324219h2.648438v-1.324219h-1.984375c-.367188 0-.664063-.296875-.664063-.660157v-1.984374zm11.90625 0v1.984374c0 .363282-.296875.660157-.660157.660157h-1.984374v1.324219h2.644531c.734375 0 1.324219-.589844 1.324219-1.324219v-2.644531zm0 0"/></g></svg>

<?xml version="1.0" encoding="UTF-8"?>
<svg xmlns="http://www.w3.org/2000/svg" xmlns:xlink="http://www.w3.org/1999/xlink" width="16px" height="16px" viewBox="0 0 16 16" version="1.1">
<g id="surface1">
<path style=" stroke:none;fill-rule:nonzero;fill:rgb(25.882354%,25.882354%,25.882354%);fill-opacity:1;" d="M 9.929688 3.117188 C 9.929688 3.195312 9.898438 3.269531 9.851562 3.328125 L 8.195312 5.3125 C 8.058594 5.476562 7.808594 5.476562 7.671875 5.3125 L 6.015625 3.328125 C 5.832031 3.101562 5.988281 2.765625 6.28125 2.765625 L 9.585938 2.765625 C 9.78125 2.765625 9.9375 2.925781 9.929688 3.117188 Z M 9.929688 3.117188 "/>
<path style=" stroke:none;fill-rule:nonzero;fill:rgb(25.882354%,25.882354%,25.882354%);fill-opacity:1;" d="M 9.929688 13.011719 C 9.929688 12.933594 9.898438 12.859375 9.851562 12.800781 L 8.195312 10.816406 C 8.058594 10.652344 7.808594 10.652344 7.671875 10.816406 L 6.015625 12.800781 C 5.832031 13.023438 5.988281 13.363281 6.28125 13.363281 L 9.585938 13.363281 C 9.78125 13.363281 9.9375 13.203125 9.929688 13.011719 Z M 9.929688 13.011719 "/>
<path style=" stroke:none;fill-rule:nonzero;fill:rgb(25.882354%,25.882354%,25.882354%);fill-opacity:1;" d="M 2.644531 1.449219 C 1.914062 1.449219 1.324219 2.039062 1.324219 2.769531 L 1.324219 5.417969 L 2.644531 5.417969 L 2.644531 3.433594 C 2.644531 3.066406 2.941406 2.769531 3.308594 2.769531 L 5.292969 2.769531 L 5.292969 1.449219 Z M 10.585938 1.449219 L 10.585938 2.769531 L 12.570312 2.769531 C 12.933594 2.769531 13.230469 3.066406 13.230469 3.433594 L 13.230469 5.417969 L 14.554688 5.417969 L 14.554688 2.769531 C 14.554688 2.039062 13.964844 1.449219 13.230469 1.449219 Z M 1.324219 10.710938 L 1.324219 13.355469 C 1.324219 14.089844 1.914062 14.679688 2.644531 14.679688 L 5.292969 14.679688 L 5.292969 13.355469 L 3.308594 13.355469 C 2.941406 13.355469 2.644531 13.058594 2.644531 12.695312 L 2.644531 10.710938 Z M 13.230469 10.710938 L 13.230469 12.695312 C 13.230469 13.058594 12.933594 13.355469 12.570312 13.355469 L 10.585938 13.355469 L 10.585938 14.679688 L 13.230469 14.679688 C 13.964844 14.679688 14.554688 14.089844 14.554688 13.355469 L 14.554688 10.710938 Z M 13.230469 10.710938 "/>
</g>
</svg>
